src/fonts/icomoon/icons/stop.svg

<!-- Generated by IcoMoon.io -->
<svg version="1.1" xmlns="http://www.w3.org/2000/svg" width="1008" height="1024" viewBox="0 0 1008 1024">
<title></title>
<g id="icomoon-ignore">
</g>
<path fill="#000" d="M1008.001 511.999c0 278.353-225.651 504.001-504.001 504.001-278.353 0-504.001-225.648-504.001-504.001 0-278.35 225.648-503.999 504.001-503.999 278.35 0 504.001 225.649 504.001 503.999zM504.001 921.499c226.161 0 409.5-183.339 409.5-409.5s-183.339-409.5-409.5-409.5c-226.161 0-409.5 183.339-409.5 409.5s183.339 409.5 409.5 409.5zM370.554 332.379c-13.752-13.752-36.048-13.752-49.798 0-13.752 13.752-13.752 36.048 0 49.802l133.453 133.453-133.459 133.456c-13.75 13.752-13.75 36.048 0 49.802 13.752 13.75 36.048 13.75 49.802 0l133.456-133.459 133.453 133.453c13.752 13.752 36.048 13.752 49.802 0 13.75-13.75 13.75-36.045 0-49.798l-133.453-133.453 133.45-133.45c13.75-13.752 13.75-36.048 0-49.802-13.752-13.75-36.048-13.75-49.802 0l-133.45 133.45-133.453-133.453z"></path>
</svg>

<svg xmlns="http://www.w3.org/2000/svg" width="1008" height="1024"><path d="M1008.001 511.999C1008.001 790.352 782.35 1016 504 1016 225.647 1016-.001 790.352-.001 511.999-.001 233.649 225.647 8 504 8c278.35 0 504.001 225.649 504.001 503.999zm-504 409.5c226.161 0 409.5-183.339 409.5-409.5s-183.339-409.5-409.5-409.5-409.5 183.339-409.5 409.5 183.339 409.5 409.5 409.5zm-133.447-589.12c-13.752-13.752-36.048-13.752-49.798 0-13.752 13.752-13.752 36.048 0 49.802l133.453 133.453L320.75 649.09c-13.75 13.752-13.75 36.048 0 49.802 13.752 13.75 36.048 13.75 49.802 0l133.456-133.459 133.453 133.453c13.752 13.752 36.048 13.752 49.802 0 13.75-13.75 13.75-36.045 0-49.798L553.81 515.635l133.45-133.45c13.75-13.752 13.75-36.048 0-49.802-13.752-13.75-36.048-13.75-49.802 0l-133.45 133.45L370.555 332.38z"/></svg>
